packages/ui/public/icons/profile-facebook-icon.svg

<svg viewBox="0 0 19 19" fill="none" xmlns="http://www.w3.org/2000/svg">
  <path d="M16.7344 8.625C16.7344 4.07617 13.0488 0.390625 8.5 0.390625C3.95117 0.390625 0.265625 4.07617 0.265625 8.625C0.265625 12.7422 3.25391 16.1621 7.20508 16.7598V11.0156H5.11328V8.625H7.20508V6.83203C7.20508 4.77344 8.43359 3.61133 10.293 3.61133C11.2227 3.61133 12.1523 3.77734 12.1523 3.77734V5.80273H11.123C10.0938 5.80273 9.76172 6.43359 9.76172 7.09766V8.625H12.0527L11.6875 11.0156H9.76172V16.7598C13.7129 16.1621 16.7344 12.7422 16.7344 8.625Z" fill="white" fill-opacity="0.923" />
</svg>

<svg viewBox="0 0 19 19" fill="none" xmlns="http://www.w3.org/2000/svg"><path d="M16.734 8.625A8.233 8.233 0 0 0 8.5.391 8.233 8.233 0 0 0 .266 8.625c0 4.117 2.988 7.537 6.94 8.135v-5.744H5.112V8.625h2.092V6.832c0-2.059 1.229-3.22 3.088-3.22.93 0 1.86.165 1.86.165v2.026h-1.03c-1.03 0-1.361.63-1.361 1.295v1.527h2.29l-.364 2.39H9.761v5.745a8.224 8.224 0 0 0 6.972-8.135Z" fill="#fff" fill-opacity=".923"/></svg>
